!!!!SEGMENT: pl-wtm--r-1362_stefani-jozef--mazur-c-nr-2.krn
!!!cenid: 18xx:1865
!!!COM: Stefani, Józef
!!!COM-rismID: pe30024097
!!!CDT: 1800/04/16-1876/03/19
!!!CNT: Polish
!!!OTL: Mazur C nr 2
!!!PDT:
!!!AGN: Secular; Mazurka
!!!YEC: Copyright 2022 Narodowy Instytut Fryderyka Chopina (https://polishscores.org)
!!!YEM: License CC-BY-4.0 (https://creativecommons.org/licenses/by/4.0)
!!!SMS-siglum: PL-Wtm
!!!SMS-shelfmark: R 1362
!!!SMS-shelfwork: W
!!!SMS-variant:
!!!SMS-altvar:
!!!NIFC-rismSourceID: 1001119505
!!!NIFC-rismChildID: 1001119505
!!!NIFC-islandoraID: pl-wtm:25361
!!!URL-pdf-islandora: https://repozytorium.nifc.pl/islandora/object/pl-wtm%3A25361/datastream/PDF/view
!!!URL-scan: https://polish.musicsources.pl/pl/lokalizacje/galeria/rekopisy/6214 @EN{Scan on Polish Music Sources Website} @PL{Skany w portalu Dziedzictwo Muzyki Polskiej w otwartym dostępie}
!!!IIIF:
!!!ONB-nifc:
!!!OMD: Mazur.
!!!AIN: 1 forte
!!!key:
**kern	**kern	**dynam
*part1	*part1	*
*staff2	*staff1	*
*Iforte	*Iforte	*
*I"Fortepian	*I"Fortepian	*
*clefF4	*clefG2	*
*k[]	*k[]	*
*C:	*C:	*
*M3/8	*M3/8	*
*>[A,B,B1,B,B2,C,D,D,E]	*>[A,B,B1,B,B2,C,D,D,E]	*>[A,B,B1,B,B2,C,D,D,E]
=1	=1	=1
*>A	*>A	*>A
!	!	!LO:DY:rj
8GL 8C\	8eeL 8cc 8g'^<\	f
8G 8C\	8gg 8ee 8cc'^<\	.
8GJ 8C\	8eeJ 8cc 8g'^<\	.
=2	=2	=2
*tremolo	*	*
8AL 8F 8C\	16.aaLL 16.ff\	.
.	32bbJJk 32gg\	.
8A 8F 8C\	8cccL 8aa\	.
8AJ 8F 8C\	8aaJ 8ff\	.
*Xtremolo	*	*
=3	=3	=3
8GL 8C\	8ggL 8ee'^<\	.
8G 8C\	8ee 8cc'^<\	.
8GJ 8C\	8ggJ 8ee'^<\	.
=4	=4	=4
8GL 8D 8GG/	16.ff\LL	.
.	32ee\JK	.
8GJ 8D 8GG/	8dd\J	.
8G 8D 8GG/	8gg 8dd 8b\|	sf
=5	=5	=5
*tremolo	*	*
8GL 8C\	(16dd#XLL 16b\	.
.	16eeJJ 16cc\)	.
8G 8C\	8ggL 8ee'^<\	.
8GJ 8C\	8eeJ 8cc'^<\	.
!!LO:LB:g=original
=6	=6	=6
8AL 8F 8C\	16.aaLL 16.ff'\	.
.	32bbJJk 32gg'\	.
8A 8F 8C\	8cccL 8aa'\	.
8AJ 8F 8C\	(16bbL 16gg\	.
.	16aaJJ 16ff\)	.
=7	=7	=7
!	!LO:TUP:a:problem=klamra łukowa	!
8GL 8C\	24ggLL 24ee\	.
.	24aa 24ff\	.
.	24ggJJ 24ee\	.
8G 8C\	8eeL 8cc'^<\	.
8GJ 8C\	8ggJ 8ee'^<\	.
*Xtremolo	*	*
=8	=8	=8
8D 8DD/	16.ff#X\LL	.
.	32cccJJk 32ee\	.
8c 8A 8D\	16.dddLL 16.dd\	.
.	32ff#JJk 32f#X\	.
8B 8G\	8gg 8g\	.
=9!|:	=9!|:	=9!|:
*>B	*>B	*>B
*^	*	*
4.GG/	8GG\L	8b\	f p
.	.	(16qqb/LL	.
.	.	16qqdd/	.
.	.	16qqff/JJ	.
.	8G 8D 8BB\	8aa\L)	.
.	8GJ 8D 8BB\	16.gg\L	.
.	.	32ff\JJk	.
!!LO:LB:g=original
=10	=10	=10	=10
4.C/	8C\L	16.ee\LL	.
.	.	32ff\K	.
.	8G 8E\	16.gg\	.
.	.	32aa\JJk	.
.	8GJ 8E\	8gg\	.
=11	=11	=11	=11
4.AA/	8AA\L	8aa\	f
.	.	(16qqa/LL	.
.	.	16qqcc#X/	.
.	.	16qqee/JJ	p
.	8A 8E 8C#X\	8aa\L)	.
.	8AJ 8E 8C#\	16.gg\L	.
.	.	32ee\JJk	.
=12	=12	=12	=12
4.D/	8D\L	16.ff'\LL	.
.	.	32ee'\JJk	.
.	.	(8qgg/	.
.	8A 8F\	16.ff\LL)	.
.	.	32ee'\JJk	.
.	8AJ 8F\	8dd'\	.
*v	*v	*	*
=13	=13	=13
!	!	!LO:DY:rj
8G 8GG/	8b\	f
.	(16qqb/LL	.
.	16qqdd/	.
.	16qqff/JJ	.
8fL 8d 8G\	8aa\L)	.
8fJ 8d 8G\	16.gg\L	.
.	32ff\JJk	.
!!LO:LB:g=original
=14	=14	=14
8C/	16.ee\LL	.
.	32gg\JJk	.
8eL 8c 8G\	8ccc\L	.
8eJ 8c 8G\	8eeeJ 8ee\	.
=15	=15	=15
*tremolo	*	*
8fL 8d 8G\	16.gggLL 16.gg\	.
.	32fffJJk 32ff\	.
8f 8d 8G\	8dddL 8dd\	.
8fJ 8d 8G\	8bbJ 8b\	.
*Xtremolo	*	*
=16	=16	=16
!LO:TX:a:t=1a	!	!
*>B1	*>B1	*>B1
8e 8c\	(16dd\LL	.
.	16cc\JJ)	.
8c 8C\	8ccc 8ee 8cc\	.
8r	8r	.
=17:|!	=17:|!	=17:|!
!LO:TX:a:t=2	!	!
*>B2	*>B2	*>B2
8e 8c\	16dd\LL	.
.	16cc\JJ	.
16.c\LL	8ccc 8ee 8cc\	.
32c\K	.	.
(16B-X\	8r	.
16G\JJ)	.	.
=18||	=18||	=18||
!!!OMD: Trio
*>C	*>C	*>C
*k[b-]	*k[b-]	*
*^	*	*
4.F/|	16F\LL	8aaL 8ff'\	p
.	(>16c\	.	.
.	16A\	8cccJ 8aa'\	.
.	16c\	.	.
.	16A\	(16bb-XLL 16gg\	.
.	16c\JJ)	16aaJJ 16ff\)	.
!!LO:LB:g=original
=19	=19	=19	=19
.	.	(8qaa/	.
4.E/|	16E\LL	16.gg\LL)	.
.	(>16c\	.	.
.	.	32ff#X|\JJk	.
.	16G\	8gg|\L	.
.	16c\	.	.
.	16G\	8ccc|\J	.
.	16c\JJ)	.	.
=20	=20	=20	=20
4.D/|	16D\LL	(16ee\LL	.
.	(>16A\	16ff\J)	.
.	16F\	8aa'\J	.
.	16A\	.	.
.	16F\	(16gg\LL	.
.	16A\JJ)	16ff\JJ)	.
=21	=21	=21	=21
.	.	(8qff/	.
4C#X/|	16C#\LL	16.ee\LL)	.
.	(>16A\	.	.
.	.	32dd#X|\JJk	.
.	16E\	8ee|\	.
.	16A\JJ	.	.
!LO:TX:t=P:problem=mixed beam	!	!	!
16AA/LL	8AA\)	8aa 8cc#X 8a\	sf
16A\JJ	.	.	.
=22	=22	=22	=22
4.BB-/|	16BB-\LL	(16cc#X\LL	.
.	(>16F\	16dd\JJ)	.
.	16D\	8ff\L	.
.	16F\	.	.
.	.	(32qqgg/LLL	.
.	.	32qqff/JJJ	.
.	16D\	(16ee\L)	.
.	16G\JJ)	16dd\JJ)	.
=23	=23	=23	=23
4.C/|	16C\LL	16.cc\LL	.
.	(>16A\	.	.
.	.	32ff\JJk	.
.	16F\	8aa\L	.
.	16A\	.	.
.	16F\	8ccc\J	.
.	16A\JJ)	.	.
!!LO:LB:g=original
=24	=24	=24	=24
4.C/	16C\LL	(16ddd\LL	.
.	16B-\	16ccc\JJ	.
.	16G\	8bb-\L)	.
.	16B-\	.	.
.	16G\	8ee\J	.
.	16B-\JJ	.	.
*v	*v	*	*
=25	=25	=25
8A 8F\	8ff\	.
!	!	!LO:DY:rj
8F 8FF/	8fff 8aa 8ff\	f
8r	8r	.
=26!|:	=26!|:	=26!|:
*>D	*>D	*>D
!	!	!LO:DY:rj
8A 8AA\	16.aaLL 16.cc#X 16.a\	f
.	32aaJJk 32cc# 32a\	.
4e 4c#X 4A\	4ee 4cc# 4a\	.
=27	=27	=27
.	(8qgg/	.
8D\L	16.ff\LL)	.
.	32ee'\JJk	.
8f 8d 8A\	8ff'\L	.
8fJ 8d 8A\	8dd|\J	.
=28	=28	=28
!	!LO:TUP:a:problem=klamra łukowa	!LO:DY:rj
8AA/	24cc#X\LL	p
.	24dd\	.
.	24ee\JJ	.
8gL 8e 8A\	8a/L	.
8gJ 8e 8A\	16bn/L	.
.	16cc#/JJ	.
=29	=29	=29
8D\	16.dd\LL	.
.	32ee\JJk	.
8fL 8d 8A\	8ff\	.
.	(8qgg#X/	.
8fJ 8d 8A\	8aa\)	.
!!LO:PB:g=original
=30	=30	=30
8E 8EE/	16.cccLL 16.gg 16.cc\	.
.	32cccJJk 32gg 32cc\	.
4c 4G 4E\	4gg 4cc\	.
=31	=31	=31
.	(8qbb-/	.
8F 8FF/	16.aa\LL)	.
.	32gg\JJk	.
8cL 8A 8F\	8aa\L	.
8cJ 8A 8F\	8ff\J	.
=32	=32	=32
*^	*	*
!	!	!	!LO:DY:rj
4.BB-/	8BB-\L	(16ff\LL	p
.	.	16ee\	<
.	8G#X 8D\	16dd\	.
.	.	16cc#X\	.
.	8G#J 8D\	16dd\	.
.	.	16ee\JJ)	[[
*v	*v	*	*
=33	=33	=33
8AA/	(16cc#X\LL	.
.	16ee\JJ	.
8A 8E 8AA\	8aa 8cc# 8a\)	.
!	!	!LO:DY:rj
8Gn 8GGn/	8bb- 8ee 8ccn\	f
=34	=34	=34
*^	*	*
8qFF/	.	.	.
!	!	!	!LO:DY:rj
4.F/|	16F\LL	8aaL 8ff 8cc'\	p
.	(>16c\	.	.
.	16A\	8cccJ 8aa'\	.
.	16c\	.	.
.	16A\	(16bb-LL 16gg\	.
.	16c\JJ)	16aaJJ 16ff\)	.
!!LO:LB:g=original
=35	=35	=35	=35
.	.	(8qaa/	.
4.E/|	16E\LL	16.gg\LL)	.
.	(>16c\	.	.
.	.	32ff#X|\JJk	.
.	16G\	8gg|\L	.
.	16c\	.	.
.	16G\	8ccc|\J	.
.	16c\JJ)	.	.
=36	=36	=36	=36
4.D/|	16D\LL	(16ee\LL	.
.	(>16A\	16ff\J)	.
.	16F\	8aa\J	.
.	16A\	.	.
.	16F\	(16gg\LL	.
.	16A\JJ)	16ff\JJ)	.
=37	=37	=37	=37
.	.	(8qff/	.
4C#X/|	16C#\LL	16.ee\LL)	.
.	(>16A\	.	.
.	.	32dd#X|\JJk	.
.	16E\	8ee|\	.
.	16A\JJ)	.	.
(16AA/LL	8AA\	8aa 8cc 8a\	.
16A\JJ)	.	.	.
=38	=38	=38	=38
4.BB-/|	16BB-\LL	(16cc#X\LL	.
.	(>16F\	16dd\JJ)	.
.	16D\	(>8ff\L	.
.	16F\	.	.
.	.	32qqgg/LLL	.
.	.	32qqff/JJJ	.
.	16D\	16ee\L	.
.	16G\JJ)	16dd\JJ)	.
=39	=39	=39	=39
4.C/|	16C\LL	16.cc\LL	.
.	(>16A\	.	.
.	.	32ff\JJk	.
.	16F\	8aa\L	.
.	16A\	.	.
.	16F\	8ccc\J	.
.	16A\JJ)	.	.
!!LO:LB:g=original
=40	=40	=40	=40
4.C/	16C\LL	(16ddd\LL	.
.	(>16B-\	16ccc\JJ	.
.	16G\	8bb-\L)	.
.	16B-\	.	.
.	16G\	8ee'\J	.
.	16B-\JJ)	.	.
*v	*v	*	*
=41	=41	=41
8A 8F\	8ff\	.
!	!	!LO:DY:rj
8F 8FF/	8fff 8aa 8ff\	f
!	!LO:TX:b:t=attaca\nCoda	!
!	!LO:TX:a:t=P:problem=fermata na kresce taktowej	!
8r	8r;	.
!!LO:LB:g=original
=42:|!	=42:|!	=42:|!
*>E	*>E	*>E
*k[bn]	*k[bn]	*
!	!LO:TX:a:i:t=piu mosso.	!
!	!LO:TX:a:i:t=Coda	!LO:DY:rj
8GL 8C\	8eeL 8cc 8g'^<\	ff
8G 8C\	8gg 8ee 8cc'^<\	.
8GJ 8C\	8eeJ 8cc 8g'^<\	.
=43	=43	=43
*tremolo	*	*
8AL 8F 8C\	16.aaLL 16.ff\	.
.	32bbJJk 32gg\	.
8A 8F 8C\	8cccL 8aa\	.
8AJ 8F 8C\	8aaJ 8ff\	.
*Xtremolo	*	*
=44	=44	=44
8GL 8C\	8ggL 8ee^<\	.
8G 8C\	8ee 8cc^<\	.
8GJ 8C\	8ggJ 8ee^<\	.
=45	=45	=45
8GL 8D 8GG/	16.ff\LL	.
.	32ee\JJk	.
8GJ 8D 8GG/	8dd\	.
8G 8D 8GG/	8gg 8dd 8b\	.
=46	=46	=46
*tremolo	*	*
8GL 8C\	(16dd#XLL 16b\	.
.	16eeJJ 16cc\)	.
8G 8C\	8ggL 8ee'^<\	.
8GJ 8C\	8eeJ 8cc'^<\	.
*Xtremolo	*	*
!!LO:LB:g=original
=47	=47	=47
8F 8FF/	16.aaLL 16.ff|\	.
.	32bbJJk 32gg|\	.
8cL 8A 8F\	8cccL 8aa\	.
8dJ 8A 8F\	(16bbL 16gg\	.
.	16aaJJ 16ff\)	.
=48	=48	=48
8G 8GG/	16gg 16ee|\	.
!	!LO:TUP:a:problem=klamra łukowa	!
.	48gg\LLL	.
.	48ccc\	.
.	48eee\JJJ	.
8eL 8c 8G\	8ggg\L	.
8fJ 8d 8G\	8bbtt\J	.
=49	=49	=49
8e 8c\	(16ddd\LL	.
.	16ccc\JJ)	.
!LO:TX:b:i:t=fine	!LO:TX:a:t=P:problem=fermata na kresce taktowej	!
4c 4C\	4cc 4g 4e/;	.
==	==	==
*-	*-	*-
!!!system-decoration: {(s1,s2)}
!!!RDF**kern: > = above
!!!RDF**kern: < = below
!!!RDF**kern: | = vertical stroke
!!!ENC: Marta Lawrence
!!!END: 2021-05-05
!!!ENC: Marcin Jachim
!!!END: 2021-04-10
